X:1
T:The Haunted House
C:Vincent Broderick
N:Play two times through
N:The Armagh Set, figure 4, tune 1 of 2
Z:Gordon Turnbull, Edinburgh
Z:gturnbull@theflow.org.uk
Z:http://www.theflow.org.ukh
B:The Turoe Stone, Vincent Broderick
D:The Turoe Stone, Vincent Broderick
R:Jig
M:6/8
L:1/8
K:G
~G3 AGA | BGE EDE | GBd egd | ege edB |
~G3 AGA | BGE EDE | GBd ege | dBA G2 D :||
GBd egd | ege edB | GBd ded | ded dBA |
[1 GBd egd | ege edB | GBd ded | dBA G2 D :||
[2 ~G3 AGA | BGE EDE | GBd ege | dBA G2 D ||
